!! 00000] TT[WS
!!!OTL: Jiao gaor
!!!ARE: Asia, China,ÿShanxi Licheng
!! Ethnic Group: Han
!! WI, 220 (1)
!!!SCT: J0261
!!!YEM: Copyright 1995, estate of Helmut Schaffrath.
**kern
*ICvox
*Ivox
*M2/4
*k[]
*C:
{4c
4c
=1
8A
8c
8A
8G
=2
8g
16a
16g
4f
=3
4a
8a
8a
=4
8g
8a
8e
8d
=5
8c
16d
16A
4c}
=6
{8f
8d
4f
=7
8g
4a
8g
=8
4.f
8g
=9
8d
8c
4A}
=10
{8d
8d
8d
8e
=11
8d
8c
4A
=12
4.c
8d
=13
2c}
==
!!!AGN: Xiaodiao. Qingge, Sichun
!!!ONB: ESAC (Essen Associative Code) Database: CHINA
!!!AMT: simple duple
!!!AIN: vox
!!!EED: Helmut Schaffrath
!!!EEV: 1.0
*-
